src/assets/icons/npm.svg

<svg viewBox="0 0 2500 975" xmlns="http://www.w3.org/2000/svg"><path d="m1114.86 555.02h135.14v-275.098h-135.14z"/><path clip-rule="evenodd" d="m0 834.941v-834.941h2500v834.941h-1250v139.961h-555.02v-139.961zm139.961-694.98h555.019v555.019h-139.96v-415.058h-139.961v415.058h-275.098zm694.98 694.98v-694.98h555.019v555.019h-275.1v139.961zm694.979-694.98h834.94v555.019h-139.96v-415.058h-139.96v415.058h-139.96v-415.058h-139.96v415.058h-275.1z" fill-rule="evenodd"/></svg>

<svg xmlns="http://www.w3.org/2000/svg" viewBox="0 0 2500 975">
  <path d="M1114.86 555.02H1250V279.922H1114.86V555.02Z" />
  <path fill-rule="evenodd" clip-rule="evenodd"
    d="M0 834.941V0H2500V834.941H1250V974.902H694.98V834.941H0ZM139.961 139.961H694.98V694.98H555.02V279.922H415.059V694.98H139.961V139.961ZM834.941 834.941V139.961H1389.96V694.98H1114.86V834.941H834.941ZM1529.92 139.961H2364.86V694.98H2224.9V279.922H2084.94V694.98H1944.98V279.922H1805.02V694.98H1529.92V139.961Z" />
</svg>
